!!!!SEGMENT: pl-gd--ee-1638--003-011_marenzio-luca--madrigali-a-quatro-voci-vedi-le-valli-e-i-campi.krn
!!!cenid: 15xx:985
!!!COM: Marenzio, Luca
!!!COM-rismID: pe30003955
!!!CDT: ~1553-1599/08/22
!!!CNT: Italian
!!!GTL: Madrigali a quatro voci
!!!OTL: Vedi le valli e i campi
!!!OMV: 011
!!!PDT: 1587
!!!AGN:
!!!SMS-siglum: PL-GD
!!!SMS-shelfmark: Ee 1638
!!!SMS-shelfwork: 003-011 G
!!!SMS-variant:
!!!SMS-altvar:
!!!NIFC-rismSourceID: 1001202747
!!!NIFC-rismChildID: 990039322
!!!NIFC-islandoraID: pl-gd:57883
!!!URL-pdf-islandora: https://repozytorium.nifc.pl/islandora/object/pl-gd%3A57883/datastream/PDF/view
!!!URL-scan: https://polish.musicsources.pl/pl/lokalizacje/galeria/klocki-introligatorskie/655 @EN{Scan on Polish Music Sources Website} @PL{Skany w portalu Dziedzictwo Muzyki Polskiej w otwartym dostępie}
!!!ONB-nifc: UWAGA: zbiór na stronach: Canto: s. 637-653, Alto: s. do 486-501, Tenore: s. do 334-349, Bassus: s. do 182-197. Uwaga: utwory podzielone wg tytułów w spisach treści dostępnych na końcu każdej księgi głosowej.
!!!AIN: 1 alto 1 bass 1 soprn 1 tenor
!!!key: C:ion
**kern	**text	**mod-text	**kern	**text	**mod-text	**kern	**text	**mod-text	**kern	**text	**mod-text
*part4	*part4	*part4	*part3	*part3	*part3	*part2	*part2	*part2	*part1	*part1	*part1
*staff4	*staff4	*staff4	*staff3	*staff3	*staff3	*staff2	*staff2	*staff2	*staff1	*staff1	*staff1
*I"BASSO	*	*	*I"TENORE	*	*	*I"ALTO	*	*	*I"CANTO	*	*
*mI"Basso	*	*	*mI"Tenore	*	*	*mI"Alto	*	*	*mI"Soprano	*	*
*I'B	*	*	*I'T	*	*	*I'A	*	*	*I'S	*	*
*Ibass	*	*	*Itenor	*	*	*Ialto	*	*	*Isoprn	*	*
*ICvox	*	*	*ICvox	*	*	*ICvox	*	*	*ICvox	*	*
*clefC4	*	*	*clefC3	*	*	*clefC2	*	*	*clefG2	*	*
*mclefGv2	*	*	*mclefGv2	*	*	*mclefG2	*	*	*mclefG2	*	*
*k[]	*	*	*k[]	*	*	*k[]	*	*	*k[]	*	*
*C:ion	*	*	*C:ion	*	*	*C:ion	*	*	*C:ion	*	*
*M4/2	*	*	*M4/2	*	*	*M4/2	*	*	*M4/2	*	*
*met(C)	*	*	*met(C)	*	*	*met(C)	*	*	*met(C)	*	*
*mmet(c)	*	*	*mmet(c)	*	*	*mmet(c)	*	*	*mmet(c)	*	*
=1-	=1-	=1-	=1-	=1-	=1-	=1-	=1-	=1-	=1-	=1-	=1-
*xywh-pl-gd--ee1638-8o--0187:4656,520,3393,874	*	*	*xywh-pl-gd--ee1638-8o--0339:4618,610,3321,724	*	*	*xywh-pl-gd--ee1638-8o--0491:4555,550,3259,830	*	*	*xywh-pl-gd--ee1638-8o--0643:4645,503,3280,894	*	*
1r	.	.	1r	.	.	1r	.	.	1cc	VE-	Ve-
1c	VE-	Ve-	1e	VE-	Ve-	2r	.	.	1g	-di	-di
.	.	.	.	.	.	1cc\	VE-	Ve-	.	.	.
=2-	=2-	=2-	=2-	=2-	=2-	=2-	=2-	=2-	=2-	=2-	=2-
1G	-di	-di	1d	-di	-di	.	.	.	4r	.	.
.	.	.	.	.	.	.	.	.	4.gg\	Ve-	ve-
.	.	.	.	.	.	2b\	-di	-di	.	.	.
.	.	.	.	.	.	.	.	.	8gg\	-di	-di
.	.	.	.	.	.	.	.	.	4dd\	le	le
1r	.	.	1r	.	.	4r	.	.	4.ee\	val-	val-
.	.	.	.	.	.	4.cc\	Ve-	ve-	.	.	.
.	.	.	.	.	.	.	.	.	8ee\	li e i	li_e_i
.	.	.	.	.	.	.	.	.	4ee\	cam-	cam-
.	.	.	.	.	.	8cc\	-di	-di	.	.	.
.	.	.	.	.	.	4g\	le	le	4dd\	-pi	-pi
=3-	=3-	=3-	=3-	=3-	=3-	=3-	=3-	=3-	=3-	=3-	=3-
0r	.	.	0r	.	.	4.a\	val-	val-	2cc\	che	che
.	.	.	.	.	.	8a\	li e i	li_e_i	.	.	.
.	.	.	.	.	.	4a\	cã(m)-	cam-	2ee\	ſi	ſi
.	.	.	.	.	.	4g\	-pi	-pi	.	.	.
.	.	.	.	.	.	4f\	che	che	8dd\	ſmal-	ſmal-
.	.	.	.	.	.	.	.	.	8cc\	.	.
.	.	.	.	.	.	4e/	ſi	ſi	2cc\	.	-ta-
.	.	.	.	.	.	4.d/	ſmal-	ſmal-	.	.	.
.	.	.	.	.	.	.	.	.	4b/	-ta-	.
.	.	.	.	.	.	8d/	-ta-	-ta-	.	.	.
=4-	=4-	=4-	=4-	=4-	=4-	=4-	=4-	=4-	=4-	=4-	=4-
2r	.	.	2r	.	.	2c/	-no	-no	1cc	-no	-no
1c	Ve-	ve-	1e	Ve-	ve-	1cc	Ve-	ve-	.	.	.
!	!	!	!	!	!	!	!	!	!LO:SIC:v:t=custos ee	!	!
.	.	.	.	.	.	.	.	.	1gg	Ve-	ve-
!	!	!	!	!	!	!LO:SIC:v:t=custos cc	!	!	!LO:LB:g=original	!	!
2G/	-di	-di	2d\	-di	-di	2b\	-di	-di	.	.	.
!	!	!	!	!	!	!LO:LB:g=original	!	!	!	!	!
=5-	=5-	=5-	=5-	=5-	=5-	=5-	=5-	=5-	=5-	=5-	=5-
*	*	*	*	*	*	*xywh-pl-gd--ee1638-8o--0491:4514,1193,3394,664	*	*	*xywh-pl-gd--ee1638-8o--0643:4594,1203,3424,688	*	*
4r	.	.	4r	.	.	2cc\	Ve-	ve-	2ee\	-di	-di
4.c\	ve-	Ve-	4.e\	Ve-	ve-	.	.	.	.	.	.
.	.	.	.	.	.	2g\	-di	-di	2r	.	.
8c\	-di	-di	8e\	-di	-di	.	.	.	.	.	.
4G/	le	le	4d\	le	le	.	.	.	.	.	.
4.A/	val-	val-	4.c/	val-	val-	1r	.	.	1r	.	.
8A/	li_e_i	li_e_i	8c/	li e i	li_e_i	.	.	.	.	.	.
4A/	cã(m)-	cam-	4c/	cam-	cam-	.	.	.	.	.	.
4G/	-pi	-pi	4B/	-pi	-pi	.	.	.	.	.	.
=6-	=6-	=6-	=6-	=6-	=6-	=6-	=6-	=6-	=6-	=6-	=6-
!	!	!	!	!	!	!LO:TX:t=P:problem: po 1r występuje w źródle jeszcze 4r	!	!	!	!	!
!	!	!	!	!	!	!LO:N:vis=1	!	!	!	!	!
!	!	!	!	!	!	!LO:MO:mod=1r	!	!	!	!	!
4F/	che	che	4A/	che	che	2r	.	.	4.cc\	Di	di
4E/	ſi	ſi	4c/	ſi	ſi	.	.	.	.	.	.
.	.	.	.	.	.	.	.	.	8cc\	co-	co-
!	!	!	!	!	!	!LO:N:vis=4	!	!	!	!	!
!	!	!	!	!	!	!LO:MO:mod=.	!	!	!	!	!
4.D/	ſmal-	ſmal-	4.B/	ſmal-	ſmal-	2r	.	.	2dd\	-lor	-lor
!LO:SIC:v:t=custos C	!	!	!LO:SIC:v:t=custos c	!	!	!	!	!	!	!	!
8D/	-ta-	-ta-	8B/	-ta-	-ta-	.	.	.	.	.	.
*xywh-pl-gd--ee1638-8o--0187:4656,1301,3455,551	*	*	*xywh-pl-gd--ee1638-8o--0339:4545,1241,3434,631	*	*	*	*	*	*	*	*
!LO:LB:g=original	!	!	!LO:LB:g=original	!	!	!	!	!	!	!	!
2C/	-no	-no	2c/	-no	-no	4.g\	Di	di	4ee\	mil-	mil-
.	.	.	.	.	.	.	.	.	4ee\	-le	-le
.	.	.	.	.	.	8g\	co-	co-	.	.	.
4.c\	Di	di	4.e\	Di	di	2a\	-lor	-lor	2r	.	.
8c\	co-	co-	8e\	co-	co-	.	.	.	.	.	.
=7-	=7-	=7-	=7-	=7-	=7-	=7-	=7-	=7-	=7-	=7-	=7-
2d\	-lor	-lor	2f#X\	-lor	-lor	4.b\	Di	di	2r	.	.
.	.	.	.	.	.	8b\	co-	co-	.	.	.
4e\	mil-	mil-	4g\	mil-	mil-	2cc\	-lor	-lor	4.ee\	Di	di
4e\	-le	-le	4g\	-le	-le	.	.	.	.	.	.
.	.	.	.	.	.	.	.	.	8ee\	co-	co-
2r	.	.	2r	.	.	2a\	mil-	mil-	2ff#X\	-lor	-lor
4.c\	Di	di	4.e\	Di	di	2g\	-le	-le	4gg\	mil-	mil-
.	.	.	.	.	.	.	.	.	4gg\	-le	-le
8c\	co-	co-	8e\	co-	co-	.	.	.	.	.	.
=8-	=8-	=8-	=8-	=8-	=8-	=8-	=8-	=8-	=8-	=8-	=8-
2A/	-lor	-lor	2f#X\	-lor	-lor	2r	.	.	2r	.	.
4G/	mil-	mil-	4g\	mil-	mil-	4r	.	.	4r	.	.
4G/	-le	-le	4d\	-le	-le	4g\	&	et	4gg\	&	et
1r	.	.	1r	.	.	4.a\	con	con	4.ffny\	con	con
.	.	.	.	.	.	8b\	la	la	8dd\	la	la
.	.	.	.	.	.	4.cc\	pi-	pi-	4.ee\	pi-	pi-
.	.	.	.	.	.	8a\	ua e'l	va_e'l	8cc\	ua e'l	va_e'l
=9-	=9-	=9-	=9-	=9-	=9-	=9-	=9-	=9-	=9-	=9-	=9-
0r	.	.	0r	.	.	4.b\	cro-	cro-	4.dd\	cro-	cro-
.	.	.	.	.	.	8b\	-ta-	-ta-	8dd\	-ta-	-ta-
.	.	.	.	.	.	4.cc\	-lo	-lo	4.cc\	-lo	-lo
!	!	!	!	!	!	!LO:SIC:v:t=custos a	!	!	!LO:SIC:v:t=custos ff	!	!
.	.	.	.	.	.	8g\	&	et	8gg\	&	et
!	!	!	!	!	!	!LO:LB:g=original	!	!	!LO:LB:g=original	!	!
*	*	*	*	*	*	*xywh-pl-gd--ee1638-8o--0491:4534,1816,3352,622	*	*	*xywh-pl-gd--ee1638-8o--0643:4655,1768,3444,596	*	*
.	.	.	.	.	.	4.a\	con	con	4.ff\	con	con
.	.	.	.	.	.	8b\	la	la	8dd\	la	la
.	.	.	.	.	.	4.cc\	pi-	pi-	4.ee\	pi-	pi-
.	.	.	.	.	.	8a\	ua e'l	-va_e'l	8cc\	ua e'l	-va_e'l
=10-	=10-	=10-	=10-	=10-	=10-	=10-	=10-	=10-	=10-	=10-	=10-
2r	.	.	2r	.	.	4.b\	cro-	cro-	4.dd\	cro-	cro-
.	.	.	.	.	.	8b\	-ta-	-ta-	8dd\	-ta-	-ta-
4r	.	.	4r	.	.	2cc\	-lo	-lo	2cc\	-lo	-lo
4c\	In-	in-	4e\	In-	in-	.	.	.	.	.	.
8c\	-tor-	-tor-	8e\	-tor-	-tor-	1r	.	.	1r	.	.
8B\	.	.	8d\	.	.	.	.	.	.	.	.
8c\	.	.	8e\	.	.	.	.	.	.	.	.
8d\	.	.	8fny\	.	.	.	.	.	.	.	.
4c\	.	.	4e\	.	.	.	.	.	.	.	.
!	!	!	!LO:SIC:v:t=custos g	!	!	!	!	!	!	!	!
4d\	no ai	no_ai	4f\	no ai	no_ai	.	.	.	.	.	.
!	!	!	!LO:LB:g=original	!	!	!	!	!	!	!	!
=11-	=11-	=11-	=11-	=11-	=11-	=11-	=11-	=11-	=11-	=11-	=11-
*	*	*	*xywh-pl-gd--ee1638-8o--0339:4618,1779,3362,610	*	*	*	*	*	*	*	*
2e\	fon-	fon-	2g\	fon-	fon-	1r	.	.	1r	.	.
4e\	ti i	ti_i	4g\	ti i	ti_i	.	.	.	.	.	.
!LO:SIC:v:t=custos c	!	!	!	!	!	!	!	!	!	!	!
4d\	pa-	pa-	4f\	paſ-	paſ-	.	.	.	.	.	.
*xywh-pl-gd--ee1638-8o--0187:4708,1801,3278,614	*	*	*	*	*	*	*	*	*	*	*
!LO:LB:g=original	!	!	!	!	!	!	!	!	!	!	!
2c\	-ſtor	-ſtor	2e\	-tor	-tor	4g\	i	i	4ee\	i	i
.	.	.	.	.	.	4a\	paſ-	paſ-	4ff\	paſ-	paſ-
8G/	lie-	lie-	4.d\	lie-	lie-	2b\	-tor	-tor	2gg\	-tor	-tor
8A/	.	.	.	.	.	.	.	.	.	.	.
8B\	.	.	.	.	.	.	.	.	.	.	.
8c\	.	.	8g\	-ti	-ti	.	.	.	.	.	.
=12-	=12-	=12-	=12-	=12-	=12-	=12-	=12-	=12-	=12-	=12-	=12-
4d\	.	.	4.f#X\	ſal-	ſal-	2a\	lie-	lie-	2r	.	.
4d\	-ti	-ti	.	.	.	.	.	.	.	.	.
.	.	.	8f#\	-ta-	-ta-	.	.	.	.	.	.
8G/	lie-	lie-	2g\	-no	-no	2b\	-ti	-ti	4.dd\	lie-	lie-
8A/	.	.	.	.	.	.	.	.	.	.	.
8B\	.	.	.	.	.	.	.	.	.	.	.
8c\	.	.	.	.	.	.	.	.	8gg\	-ti	-ti
4d\	.	.	2r	.	.	4.a\	ſal-	ſal-	4.ff#X\	ſal-	ſal-
4d\	-ti	-ti	.	.	.	.	.	.	.	.	.
.	.	.	.	.	.	8a\	-ta-	-ta-	8ff#\	-ta-	-ta-
8G/	lie-	lie-	4.d\	lie-	lie-	2b\	-no	-no	2gg\	-no	-no
8A/	.	.	.	.	.	.	.	.	.	.	.
8B\	.	.	.	.	.	.	.	.	.	.	.
8c\	.	.	8g\	-ti	-ti	.	.	.	.	.	.
=13-	=13-	=13-	=13-	=13-	=13-	=13-	=13-	=13-	=13-	=13-	=13-
4d\	.	.	4.f#X\	ſal-	ſal-	4.a\	ſal-	ſal-	4r	.	.
4D/	-ti	-ti	.	.	.	.	.	.	2dd\	lie-	lie-
.	.	.	8f#\	-ta-	-ta-	8a\	-ta-	-ta-	.	.	.
4.G/	ſal-	ſal-	1g	-no	-no	2b\	-no	-no	.	.	.
.	.	.	.	.	.	.	.	.	4dd\	-ti	-ti
8G/	-ta-	-ta-	.	.	.	.	.	.	.	.	.
2C/	-no	-no	.	.	.	4.cc\	ſal-	ſal-	4.ee\	ſal-	ſal-
.	.	.	.	.	.	8cc\	-ta-	-ta-	8ee\	-ta-	-ta-
!	!	!	!	!	!	!LO:SIC:v:t=custos g	!	!	!LO:SIC:v:t=custos cc	!	!
4r	.	.	4r	.	.	2b\	-no	-no	2dd\	-no	-no
!LO:SIC:v:t=custos A	!	!	!	!	!	!	!	!	!	!	!
4G/	&	et	4g\	&	et	.	.	.	.	.	.
!LO:LB:g=original	!	!	!	!	!	!LO:LB:g=original	!	!	!LO:LB:g=original	!	!
=14-	=14-	=14-	=14-	=14-	=14-	=14-	=14-	=14-	=14-	=14-	=14-
*xywh-pl-gd--ee1638-8o--0187:4677,2342,3361,614	*	*	*	*	*	*xywh-pl-gd--ee1638-8o--0491:4555,2325,3383,643	*	*	*xywh-pl-gd--ee1638-8o--0643:4563,2313,3496,647	*	*
4.A/	con	con	4.fny\	con	con	1r	.	.	2r	.	.
8B\	la	la	8d\	la	la	.	.	.	.	.	.
4.c\	pi-	pi-	4.e\	pi-	pi-	.	.	.	4.cc\	ſal-	ſal-
!	!	!	!LO:SIC:v:t=custos d	!	!	!	!	!	!	!	!
8A/	ua e'l	-va_e'l	8c/	ua e'l	-va_e'l	.	.	.	8cc\	-ta-	-ta-
!	!	!	!LO:LB:g=original	!	!	!	!	!	!	!	!
*	*	*	*xywh-pl-gd--ee1638-8o--0339:4618,2286,3310,682	*	*	*	*	*	*	*	*
4.B\	cro-	cro-	4.d\	cro-	cro-	4.g\	ſal-	ſal-	2gg\	-no	-no
8B\	-ta-	-ta-	8d\	-ta-	-ta-	8g\	-ta-	-ta-	.	.	.
2c\	-lo	-lo	2c/	-lo	-lo	4e/	-no	-no	4r	.	.
.	.	.	.	.	.	4g\	&	et	4gg\	&	et
=15-	=15-	=15-	=15-	=15-	=15-	=15-	=15-	=15-	=15-	=15-	=15-
1r	.	.	2r	.	.	4.a\	con	con	4.ffny\	con	con
.	.	.	.	.	.	8b\	la	la	8dd\	la	la
.	.	.	4.c/	ſal-	ſal-	4.cc\	pi-	pi-	4.ee\	pi-	pi-
.	.	.	8c/	-ta-	-ta-	8a\	ua e'l	-va_e'l	8cc\	ua e'l	-va_e'l
4r	.	.	4g\	-no	-no	4.b\	cro-	cro-	4.dd\	cro-	cro-
4G/	&	et	4g\	&	et	.	.	.	.	.	.
.	.	.	.	.	.	8b\	-ta-	-ta-	8dd\	-ta-	-ta-
4.A/	con	con	4.c/	con	con	2cc\	-lo	-lo	2cc\	-lo	-lo
8B\	la	la	8d\	la	la	.	.	.	.	.	.
=16-	=16-	=16-	=16-	=16-	=16-	=16-	=16-	=16-	=16-	=16-	=16-
4.c\	pi-	pi-	4.e\	pi-	pi-	2r	.	.	4.cc\	ſal-	ſal-
8A/	ua e'l	-va_e'l	8f\	ua e'l	-va_e'l	.	.	.	8cc\	-ta-	-ta-
4.B\	cro-	cro-	4.d\	cro-	cro-	4.g\	ſal-	ſal-	2gg\	-no	-no
8B\	-ta-	-ta-	8d\	-ta-	-ta-	8g\	-ta-	-ta-	.	.	.
4.c\	-lo	-lo	4.c/	-lo	-lo	2g\	-no	-no	4.gg\	ſal-	ſal-
8G/	&	et	8g\	&	et	.	.	.	8gg\	-ta-	-ta-
4.A/	con	con	4.f\	con	con	4r	.	.	4cc\	-no	-no
.	.	.	.	.	.	4.a\	ſal-	ſal-	4r	.	.
!LO:SIC:v:t=custos c	!	!	!	!	!	!	!	!	!	!	!
8B\	la	la	8d\	la	la	.	.	.	.	.	.
!LO:LB:g=original	!	!	!	!	!	!	!	!	!	!	!
=17-	=17-	=17-	=17-	=17-	=17-	=17-	=17-	=17-	=17-	=17-	=17-
*xywh-pl-gd--ee1638-8o--0187:4697,2852,3424,603	*	*	*	*	*	*	*	*	*	*	*
4.c\	pi-	pi-	4.e\	pi-	pi-	.	.	.	4.cc\	ſal-	ſal-
.	.	.	.	.	.	8g\	-ta-	-ta-	.	.	.
.	.	.	.	.	.	4a\	-no	-no	.	.	.
8A/	ua e'l	-va_e'l	8c/	ua e'l	-va_e'l	.	.	.	8cc\	-ta-	-ta-
!	!	!	!	!	!	!	!	!	!LO:SIC:v:t=custos gg	!	!
4.B\	cro-	cro-	4.d\	cro-	cro-	4r	.	.	2gg\	-no	-no
.	.	.	.	.	.	4.g\	ſal-	ſal-	.	.	.
8B\	-ta-	-ta-	8d\	-ta-	-ta-	.	.	.	.	.	.
!	!	!	!LO:SIC:v:t=custos d	!	!	!	!	!	!LO:LB:g=original	!	!
*	*	*	*	*	*	*	*	*	*xywh-pl-gd--ee1638-8o--0643:4686,2837,3300,575	*	*
1c	-lo	-lo	1e	-lo	-lo	.	.	.	4.gg\	ſal-	ſal-
.	.	.	.	.	.	8g\	-ta-	-ta-	.	.	.
.	.	.	.	.	.	4c/	-no	-no	.	.	.
.	.	.	.	.	.	.	.	.	8gg\	-ta-	-ta-
.	.	.	.	.	.	4r	.	.	4cc\	-no	-no
!	!	!	!	!	!	!LO:SIC:v:t=custos a	!	!	!	!	!
.	.	.	.	.	.	4g\	In	in-	4cc\	In-	in-
!	!	!	!LO:LB:g=original	!	!	!LO:LB:g=original	!	!	!	!	!
=18-	=18-	=18-	=18-	=18-	=18-	=18-	=18-	=18-	=18-	=18-	=18-
*	*	*	*xywh-pl-gd--ee1638-8o--0339:4659,2907,3321,579	*	*	*xywh-pl-gd--ee1638-8o--0491:4566,2916,3290,581	*	*	*	*	*
0r	.	.	0r	.	.	8a\	tor-	-tor-	8cc\	-tor-	-tor-
.	.	.	.	.	.	8g\	.	.	8b\	.	.
.	.	.	.	.	.	8a\	.	.	8cc\	.	.
.	.	.	.	.	.	8b\	.	.	8dd\	.	.
.	.	.	.	.	.	4a\	.	.	4cc\	.	.
.	.	.	.	.	.	4b\	no ai	-no_ai	4dd\	no ai	-no_ai
.	.	.	.	.	.	2cc\	fon-	fon-	2ee\	fon-	fon-
.	.	.	.	.	.	4cc\	ti i	ti_i	4ee\	ti i	ti_i
.	.	.	.	.	.	4a\	paſ-	paſ-	4cc\	paſ-	paſ-
=19-	=19-	=19-	=19-	=19-	=19-	=19-	=19-	=19-	=19-	=19-	=19-
8G/	lie-	lie-	4.d\	lie-	lie-	2b\	-tor	-tor	2dd\	-tor	-tor
8A\	.	.	.	.	.	.	.	.	.	.	.
8B\	.	.	.	.	.	.	.	.	.	.	.
8c\	.	.	8g\	-ti	-ti	.	.	.	.	.	.
4d\	.	.	4.f#X\	ſal-	ſal-	2a\	lie-	lie-	2r	.	.
4d\	-ti	-ti	.	.	.	.	.	.	.	.	.
.	.	.	8f#\	-ta-	-ta-	.	.	.	.	.	.
8G/	lie-	lie-	2g\	-no	-no	2b\	-ti	-ti	4.dd\	lie-	lie-
8A/	.	.	.	.	.	.	.	.	.	.	.
8B\	.	.	.	.	.	.	.	.	.	.	.
8c\	.	.	.	.	.	.	.	.	8gg\	-ti	-ti
4d\	.	.	2r	.	.	4.a\	ſal-	ſal-	4.ff#X\	ſal-	ſal-
4D/	-ti	-ti	.	.	.	.	.	.	.	.	.
.	.	.	.	.	.	8a\	-ta-	-ta-	8ff#\	-ta-	-ta-
=20-	=20-	=20-	=20-	=20-	=20-	=20-	=20-	=20-	=20-	=20-	=20-
4.G/	ſal-	ſal-	4.d\	ſal-	ſal-	2b\	-no	-no	2gg\	-no	-no
8G/	-ta-	-ta-	8d\	-ta-	-ta-	.	.	.	.	.	.
2C/	-no	-no	2e\	-no	-no	4.cc\	ſal-	ſal-	4.gg\	ſal-	ſal-
.	.	.	.	.	.	8cc\	-ta-	-ta-	8gg\	-ta-	-ta-
!	!	!	!	!	!	!	!	!	!LO:SIC:v:t=custos cc	!	!
4.c\	ſal-	ſal-	4.e\	ſal-	ſal-	2g\	-no	-no	2ee\	-no	-no
8c\	-ta-	-ta-	8e\	-ta-	-ta-	.	.	.	.	.	.
!LO:SIC:v:t=custos f	!	!	!	!	!	!	!	!	!LO:LB:g=original	!	!
*	*	*	*	*	*	*	*ij	*ij	*xywh-pl-gd--ee1638-8o--0643:4645,3290,3393,709	*	*
2F/	-no	-no	2fny\	-no	-no	4.a\	ſal-	ſal-	4r	.	.
.	.	.	.	.	.	.	.	.	4.cc\	ſal-	ſal-
.	.	.	.	.	.	8a\	-ta-	-ta-	.	.	.
!LO:LB:g=original	!	!	!	!	!	!	!	!	!	!	!
=21-	=21-	=21-	=21-	=21-	=21-	=21-	=21-	=21-	=21-	=21-	=21-
*xywh-pl-gd--ee1638-8o--0187:4739,3362,3403,614	*	*	*	*	*	*	*	*	*	*	*
4.f\	ſal-	ſal-	4.a\	ſal-	ſal-	2cc\	-no	-no	.	.	.
.	.	.	.	.	.	.	.	.	8cc\	-ta-	-ta-
.	.	.	.	.	.	.	.	.	2f/	-no	-no
8f\	-ta-	-ta-	8a\	-ta-	-ta-	.	.	.	.	.	.
2B-X\	-no	-no	2d\	-no	-no	4.b-X\	ſal-	ſal-	.	.	.
.	.	.	.	.	.	.	.	.	4.ffny\	ſal-	ſal-
!	!	!	!	!	!	!LO:SIC:v:t=custos a	!	!	!	!	!
.	.	.	.	.	.	8b-\	-ta-	-ta-	.	.	.
!	!	!	!	!	!	!LO:LB:g=original	!	!	!	!	!
*	*	*	*	*	*	*xywh-pl-gd--ee1638-8o--0491:4586,3394,3435,643	*	*	*	*	*
1d	Ve-	ve-	1f	Ve-	ve-	2a\	-no	-no	.	.	.
.	.	.	.	.	.	.	.	.	8ff\	-ta-	-ta-
.	.	.	.	.	.	.	.	.	4dd\	-no	-no
*	*	*	*	*	*	*	*Xij	*Xij	*	*	*
.	.	.	.	.	.	1a\	Ve-	ve-	1dd\	Ve-	ve-
=22-	=22-	=22-	=22-	=22-	=22-	=22-	=22-	=22-	=22-	=22-	=22-
1A	-di	-di	1e	-di	-di	.	.	.	.	.	.
.	.	.	.	.	.	2a\	-di	-di	2cc#X\	-di	-di
4r	.	.	4r	.	.	4r	.	.	4r	.	.
4.d\	Ve-	ve-	4.f\	Ve-	ve-	4.a\	Ve-	ve-	4.dd\	Ve-	ve-
8d\	di il	di_il	8f\	di il	di il	8a\	di il	di_il	8dd\	di il	di_il
!	!	!	!LO:SIC:v:t=custos a	!	!	!	!	!	!	!	!
4c\	mõ(n)-	mon-	4g\	mon-	mon-	4cc\	mon-	mon-	4ee\	mon-	mon-
!	!	!	!LO:LB:g=original	!	!	!	!	!	!	!	!
=23-	=23-	=23-	=23-	=23-	=23-	=23-	=23-	=23-	=23-	=23-	=23-
*	*	*	*xywh-pl-gd--ee1638-8o--0339:4618,3424,3424,589	*	*	*	*	*	*	*	*
4f\	-ton	-ton	4a\	-ton	-ton	4cc\	-ton	-ton	4ff\	-ton	-ton
4d\	di	di	4a\	di	di	4dd\	di	di	4ff\	di	di
2e\	Fri-	Fri-	2g#X\	Fri-	Fri-	2bny\	Fri-	Fri-	2ee\	Fri-	Fri-
2A/	ſo &	-ſo_et	2a\	ſo &	-ſo_et	2cc\	-ſo	-ſo	2ee\	-ſo	-ſo
2d\	ſe-	ſe-	2f\	ſe-	ſe-	2r	.	.	2r	.	.
=24-	=24-	=24-	=24-	=24-	=24-	=24-	=24-	=24-	=24-	=24-	=24-
2c\	-gna	-gna	2gny\	-gna	-gna	4r	.	.	4r	.	.
.	.	.	.	.	.	4cc\	&	et	4ee\	&	et
2r	.	.	2r	.	.	4.b\	no-	no-	4.dd\	no-	no-
.	.	.	.	.	.	8a\	-ta-	-ta-	8ccny\	-ta-	-ta-
!	!	!	!	!	!	!	!	!	!LO:SIC:v:t=custos a	!	!
4r	.	.	4r	.	.	2g\	-lo	-lo	2b/	-lo	-lo
4G/	&	et	4g\	&	et	.	.	.	.	.	.
!	!	!	!	!	!	!	!	!	!LO:LB:g=original	!	!
*	*	*	*	*	*	*	*	*	*xywh-pl-gd--ee1638-8o--0643:4666,3876,3372,699	*	*
4.A/	no-	no-	4.c/	no-	no-	2r	.	.	2r	.	.
8Bny\	-ta-	-ta-	8d\	-ta-	-ta-	.	.	.	.	.	.
=25-	=25-	=25-	=25-	=25-	=25-	=25-	=25-	=25-	=25-	=25-	=25-
2c\	-lo	-lo	2e\	-lo	-lo	2r	.	.	2r	.	.
2.F/	Clo-	clo-	2.c/	Clo-	clo-	2.f\	Clo-	clo-	2.a/	Clo-	clo-
4F/	-ni-	-ni-	4c/	-ni-	-ni-	4f\	-ni-	-ni-	4a/	-ni-	-ni-
!LO:SIC:v:t=custos E	!	!	!	!	!	!	!	!	!	!	!
2A/	-co	-co	2c/	-co	-co	2e/	-co	-co	2a/	-co	-co
!LO:LB:g=original	!	!	!	!	!	!	!	!	!	!	!
=26-	=26-	=26-	=26-	=26-	=26-	=26-	=26-	=26-	=26-	=26-	=26-
*xywh-pl-gd--ee1638-8o--0187:4666,3882,3476,686	*	*	*	*	*	*	*	*	*	*	*
1E	dol-	dol-	1B	dol-	dol-	1e	dol-	dol-	1g#X	dol-	dol-
!	!	!	!	!	!	!LO:SIC:v:t=custos e	!	!	!	!	!
1E	-ce	-ce	1B	-ce	-ce	1e	-ce	-ce	1g#	-ce	-ce
!	!	!	!	!	!	!LO:LB:g=original	!	!	!	!	!
=27-	=27-	=27-	=27-	=27-	=27-	=27-	=27-	=27-	=27-	=27-	=27-
*	*	*	*	*	*	*xywh-pl-gd--ee1638-8o--0491:4566,3913,3394,664	*	*	*	*	*
4r	.	.	4r	.	.	4r	.	.	4r	.	.
4A/	&	et	4c/	&	et	4e/	&	et	4a/	&	et
4A/	non	non	4c/	non	non	4e/	non	non	4a/	non	non
4G/	ti	ti	4d\	ti	ti	4g\	ti	ti	4b/	ti	ti
4c\	uin-	vin-	4e\	vin-	vin-	4g\	uin-	vin-	4cc\	vin-	vin-
4e\	ca il	-ca_il	4g\	ca il	-ca_il	4g\	ca il	-ca_il	4b/	ca il	-ca_il
4.d\	te-	te-	4.f#X\	te-	te-	4.a\	te-	te-	4.dd\	te-	te-
!	!	!	!LO:SIC:v:t=custos g	!	!	!	!	!	!	!	!
8d\	-di-	-di-	8f#\	-di-	-di-	8a\	-di-	-di-	8dd\	-di-	-di-
!	!	!	!LO:LB:g=original	!	!	!	!	!	!	!	!
=28-	=28-	=28-	=28-	=28-	=28-	=28-	=28-	=28-	=28-	=28-	=28-
*	*	*	*xywh-pl-gd--ee1638-8o--0339:4670,3972,3414,569	*	*	*	*	*	*	*	*
2G/	-o	-o	2g\	-o	-o	2b\	-o	-o	2dd\	-o	-o
2G/	Ch'in	ch'in	2d\	Ch'in	ch'in	4r	.	.	2b/	Ch'in	ch'in
.	.	.	.	.	.	4g\	Ch'in	ch'in	.	.	.
2F/	po-	po-	2fny\	po-	po-	2a\	po-	po-	2cc\	po-	po-
2D/	-chi	-chi	2f\	-chi	-chi	2b\	-chi	-chi	2dd\	-chi	-chi
=29-	=29-	=29-	=29-	=29-	=29-	=29-	=29-	=29-	=29-	=29-	=29-
1C	di	di	4.g\	dì	dì	2cc\	dì	di	4.ee\	dì	di
.	.	.	8f\	.	.	.	.	.	8ff\	cõ(n)-	con-
.	.	.	2e\	.	.	2g\	Ch'in	ch'in	4gg\	-uien	-vien
!	!	!	!	!	!	!	!	!	!LO:SIC:v:t=custos a	!	!
.	.	.	.	.	.	.	.	.	4gny/	che'l	che'l
!	!	!	!	!	!	!	!	!	!LO:LB:g=original	!	!
*	*	*	*	*	*	*	*	*	*xywh-pl-gd--ee1638-8o--0643:4676,4462,3413,658	*	*
1r	.	.	1r	.	.	2f\	po-	po-	4a/	ſol	ſol
.	.	.	.	.	.	.	.	.	4cc\	per-	per-
.	.	.	.	.	.	2d/	-chi	-chi	4.b/	-co-	-co-
.	.	.	.	.	.	.	.	.	8b/	-ta-	-ta-
=30-	=30-	=30-	=30-	=30-	=30-	=30-	=30-	=30-	=30-	=30-	=30-
2r	.	.	2r	.	.	4.c/	dì	di	1cc	-lo	-lo
.	.	.	.	.	.	8B/	cõ(n)-	con-	.	.	.
2c\	Ch'in	ch'in	2e\	Ch'in	ch'in	4A/	-uien	-vien	.	.	.
.	.	.	.	.	.	4c/	che'l	che'l	.	.	.
2B-X\	po-	po-	2f\	po-	po-	4d/	ſol	ſol	1r	.	.
!	!	!	!	!	!	!LO:SIC:v:t=custos e	!	!	!	!	!
.	.	.	.	.	.	4f\	per-	per-	.	.	.
!	!	!	!	!	!	!LO:LB:g=original	!	!	!	!	!
*	*	*	*	*	*	*xywh-pl-gd--ee1638-8o--0491:4597,4473,3331,633	*	*	*	*	*
2G/	-chi	-chi	2g\	-chi	-chi	4.e/	-co-	-co-	.	.	.
.	.	.	.	.	.	8e/	-ta-	-ta-	.	.	.
=31-	=31-	=31-	=31-	=31-	=31-	=31-	=31-	=31-	=31-	=31-	=31-
2F/	dì	di	4.a\	dì	di	2f\	-lo	-lo	2r	.	.
.	.	.	8a\	con-	con-	.	.	.	.	.	.
2G/	Ch'in	ch'in	4g\	-uien	-vien	2d/	Ch'in	ch'in	4r	.	.
.	.	.	4G/	che'l	che'l	.	.	.	4b/	Ch'in	ch'in
2F/	po-	po-	4A/	ſol	ſol	2.f\	po-	po-	2cc\	po-	po-
.	.	.	4c/	per-	per-	.	.	.	.	.	.
!LO:SIC:v:t=custos C	!	!	!	!	!	!	!	!	!	!	!
2D/	-chi	-chi	4.B/	-co-	-co-	.	.	.	2dd\	-chi	-chi
.	.	.	.	.	.	4d/	-chi	-chi	.	.	.
!	!	!	!LO:SIC:v:t=custos c	!	!	!	!	!	!	!	!
.	.	.	8B/	-ta-	-ta-	.	.	.	.	.	.
!LO:LB:g=original	!	!	!LO:LB:g=original	!	!	!	!	!	!	!	!
=32-	=32-	=32-	=32-	=32-	=32-	=32-	=32-	=32-	=32-	=32-	=32-
*xywh-pl-gd--ee1638-8o--0187:4739,4476,3518,645	*	*	*xywh-pl-gd--ee1638-8o--0339:4680,4428,3403,807	*	*	*	*	*	*	*	*
4.C/	dì	dì	2c/	-lo	-lo	4.g\	dì	di	4.ee\	dì	di
8D/	con-	con-	.	.	.	8f\	con-	con-	8ff\	con-	con-
4E/	-uien	-vien	4B/	che'l	che'l	4.e/	-uien	-vien	4gg\	-uien	-vien
4E/	che'l	che'l	2c/	ſol	ſol	.	.	.	4g/	che'l	che'l
.	.	.	.	.	.	8g\	che'l	che'l	.	.	.
4F/	ſol	ſol	.	.	.	4.f\	ſol	ſol	4a/	ſol	ſol
4A/	per-	per-	4c/	per-	per-	.	.	.	4cc\	per-	per-
.	.	.	.	.	.	8e/	per-	per-	.	.	.
4.G/	-co-	-co-	4.d\	-co-	-co-	4.g\	-co-	-co-	4.b/	-co-	-co-
8G/	-ta-	-ta-	8d\	-ta-	-ta-	8g\	-ta-	-ta-	8b/	-ta-	-ta-
=33-	=33-	=33-	=33-	=33-	=33-	=33-	=33-	=33-	=33-	=33-	=33-
0Cl	-lo.	-lo.	0cl	-lo.	-lo.	0gl	-lo.	-lo.	0ccl	-lo.	-lo.
==	==	==	==	==	==	==	==	==	==	==	==
*-	*-	*-	*-	*-	*-	*-	*-	*-	*-	*-	*-
!!!system-decoration: [(*)]
!!LO:MO:ori
!!!RDF**kern: l = terminal long
!!LO:MO:end
!!!ENC: Mateusz Solarz
!!!END: 2022-06-27
!!!ENC: Natalia Wrzos
!!!END: 2022-07-12
!!!ENC-modern: Andrzej Kubiczek
!!!END-modern: 2022-10-19
!!!filter-modern: shed -e "s/^custos:/Xcustos:/I" | autobeam | shed -e "s/TX(.*):t=P:/tx$1:t=P:/LG" | sic -sq | modori -m | autostem -r | tie -s | humtr -p | shed -e "s/-//B"
!!!IIIF: https://repozytorium.nifc.pl/islandora/object/pl-gd%3A57883/datastream/IIIF/view
!!!ENC-iiif: Zuzanna Daniec
!!!END-iiif: 2022-09-07
!!!YEC: Copyright 2022 Narodowy Instytut Fryderyka Chopina (https://polishscores.org)
!!!YEM: License CC-BY-4.0 (https://creativecommons.org/licenses/by/4.0)
